X:36
T:Salt River Road
C:Ed Yother
C:http://edyother.com
M:6/8
R:jig
K:Dmix
A,DA cBA | GFD EFG | A,DA cBA | GFE DD/D/D |
A,DA cBA | GFD EFG | cB/c/c dcB | AGE DD/D/D :|
|: dcd ecA | dc/d/d ecA | cBc dcB | GBc GBc |
[1 dcd ecA | dc/d/d ecA | cBc dcB | AGE DD/D/D :|
[2 dcd ecA | gfg agf | def gde | ceB A3 |]

